X:18795
T:Willie Coleman's
R:Jig
S:M. Molloy
B:Black Book
E:10
M:6/8
L:1/8
K:G
A|B2G AGE|GED GBd|edB dgb|age dBA|
B2G AGE|GED GBd|edB dBA|BGG G2:|
gfg edB|dgb age|gfg edB|GBd e3|
gfg edB|dgb age|dBd gdB|AGF G3:|


